!!!OTL: Der Schlemmer
!!!ARE: Europa, Mitteleuropa, Deutschland
!!!SCT: A0358
!!!YEM: Copyright 1995, estate of Helmut Schaffrath.
**kern
*ICvox
*Ivox
!! Mixed meters:  4/2; 6/2
*M6/2
*k[b-e-]
*g:
{2g
=1
2b-
2b-
2a
2g
=2
1dd
2cc}
{2cc
=3
2dd
1cc
2b-
1a
=4
*M4/2
1g
2r}
{2g
=5
2b-
2b-
2a
2g
=6
1dd
2cc}
{2cc
=7
*M6/2
2dd
1cc
2b-
1a
=8
*M4/2
1g
2r}
{2b-
=9
*M6/2
1a
2fn
2g
1e
=10
*M4/2
1d
2r}
{2b-
=11
*M6/2
1a
2g
1cc
2b-
=12
*M4/2
1a
2r}
{2g
=13
2b-
2b-
2a
2g
=14
1dd
2cc}
{2cc
=15
*M6/2
1dd
2cc
2b-
1a
=16
1g
2r}
==
!!!AGN: Romanze, Ballade, Lied
!! Forster II. 1540. No. 57.
!!!ONB: ESAC (Essen Associative Code) Database: ALTDEU
!!!AMT: irregular
!!!AIN: vox
!!!EED: Helmut Schaffrath
!!!EEV: 1.0
*-
